public/illustrations/_experiment.svg

<svg width="174" height="373" viewBox="0 0 174 373" fill="none" xmlns="http://www.w3.org/2000/svg">
<path d="M62.3263 169.91C59.7494 169.967 57.5833 170.08 55.4312 170.052C54.426 170.052 53.4347 170.052 52.4861 169.627C51.3676 169.457 50.3198 168.735 49.6119 167.773C48.8898 166.81 48.635 165.62 48.6633 164.488C48.8332 163.369 49.2721 162.293 49.98 161.387C50.6879 160.495 51.7641 159.929 52.9535 159.674C55.5728 159.348 58.3195 159.164 61.038 159.136C78.8637 158.584 96.6612 158.187 114.487 157.635C117.347 157.635 120.094 157.451 122.954 157.437C126.678 157.408 129.071 159.617 129.184 162.789C129.297 165.96 126.706 168.013 122.954 168.183C120.788 168.296 118.65 168.268 116.059 168.325C115.945 172.034 115.733 175.432 115.804 178.873C115.577 201.017 115.223 223.005 114.997 245.149C115.11 247.315 115.082 249.453 114.756 251.69C114.02 254.735 115.237 257.198 116.597 259.69C133.12 290.57 149.785 321.478 166.308 352.372C168.332 356.096 170.371 359.834 172.254 363.543C172.934 364.789 173.302 366.135 173.528 367.593C173.429 368.287 173.331 368.995 173.076 369.674C172.821 370.354 172.325 370.849 171.83 371.359C171.334 371.869 170.711 372.194 169.96 372.378C169.366 372.577 168.644 372.619 167.936 372.506C159.696 371.161 151.299 371.798 143.031 371.586C131.477 371.331 119.924 371.076 108.356 370.962C99.9317 370.878 91.4932 370.793 82.9272 370.679C72.9312 370.509 62.9211 370.481 52.9393 370.311C38.9364 370.127 24.9616 369.802 10.9728 369.617C8.26852 369.504 5.55009 369.547 3.21391 367.919C-0.0425825 365.724 -0.821185 363.175 0.863696 359.565C1.91144 357.285 3.3839 355.062 4.71481 352.825C23.4892 320.218 42.4334 287.498 61.2361 254.763C62.0573 253.021 62.468 251.223 62.4539 249.354C62.5813 241.652 62.3972 234.035 62.383 226.304C62.4538 209.144 62.5248 191.984 62.6239 174.682C62.5531 173.238 62.4964 171.652 62.4964 169.656L62.3121 169.91H62.3263ZM158.619 361.108C158.209 360.046 158.011 359.437 157.643 358.956C146.726 338.624 135.838 318.137 124.936 297.805C124.625 297.041 124.002 296.375 123.336 295.993C122.671 295.611 121.835 295.483 120.958 295.639C112.93 295.752 104.802 295.568 96.7886 295.54C82.3468 295.441 68.0324 295.497 53.6047 295.384C52.4862 295.214 51.2968 295.483 50.3623 296.049C49.4137 296.63 48.5924 297.366 48.1535 298.442C38.6955 315.234 28.9971 331.701 19.3833 348.479C17.4436 351.919 15.5179 355.36 13.2242 359.31L158.605 361.207V361.066L158.619 361.108ZM105.142 168.721L73.087 169.769C73.0587 172.912 72.9454 175.616 72.9878 178.335C73.0303 181.053 73.1721 183.942 73.2004 186.66C78.2126 186.674 82.6723 186.462 87.0756 186.689L89.1714 187C89.8652 187.099 90.5162 187.623 91.0118 188.133C91.5073 188.628 91.9888 189.28 92.187 189.874C92.5269 190.497 92.5694 191.219 92.5977 191.941C92.626 194.66 90.304 196.897 86.9768 197.123C85.2352 197.293 83.3945 197.166 81.5255 197.18L72.917 197.35L72.889 207.36C74.1491 207.544 75.1541 207.544 76.131 207.686C78.3681 208.011 80.8177 207.941 83.0406 208.408C84.3007 208.592 85.3626 209.172 86.2121 210.163C87.0617 211.154 87.4721 212.344 87.4296 213.632C87.2455 214.892 86.7786 216.11 85.9432 216.988C85.1078 217.866 83.876 218.404 82.715 218.517C80.9876 218.545 79.1327 218.559 77.2921 218.446C75.8904 218.248 74.6305 218.064 72.9031 218.092L72.8464 228.244C74.5738 228.216 75.9896 228.272 77.4055 228.343C81.4124 228.343 85.2917 228.201 89.2845 228.357C93.5462 228.555 96.1799 232.081 94.8065 235.606C94.3676 236.682 93.518 237.56 92.5694 238.141C91.6207 238.721 90.4455 238.976 89.2986 238.948C87.1323 239.061 84.8671 238.877 82.7292 238.849C79.4444 238.792 76.1454 238.891 72.8323 238.976C72.8323 243.847 73.0588 248.165 72.8464 252.568C72.719 254.409 72.3365 256.066 71.5294 257.666C67.2252 265.623 62.7938 273.424 58.3622 281.211C57.7817 282.273 57.3285 283.349 56.5498 284.807L117.786 284.878C117.007 283.335 116.611 282.131 116.059 281.055C112.477 274.231 108.753 267.392 105.142 260.724C104.08 259.138 103.656 257.212 103.656 255.216C104.123 251.988 104.194 248.576 104.25 245.291C104.491 224.011 104.746 202.716 105.001 181.294C105.171 177.174 105.185 173.167 105.255 168.735H105.114L105.142 168.721Z" fill="#102185"/>
<path d="M122.785 92.8874C123.294 97.2482 123.492 101.722 123.422 106.14C122.77 116.49 117.333 125.282 107.989 128.496C105.129 129.516 101.915 129.898 98.9555 129.615C95.8264 129.445 92.8107 128.581 90.1772 127.052C86.6942 125.396 83.5793 123.229 80.6768 121.516C77.9866 123.272 75.2821 125.169 72.5919 126.925C64.3799 132.163 55.5307 134.018 46.0444 131.356C40.565 129.7 35.6095 126.401 32.2822 121.757C28.8134 117.099 26.9022 111.534 26.8881 105.8C26.8456 99.2162 28.5162 92.7316 31.7727 87.054C32.3532 85.9921 33.1035 84.817 33.7265 83.4719C33.3725 82.9905 33.0046 82.5091 32.509 81.9994C18.1097 69.8796 17.0759 47.5515 31.631 33.0815C40.3244 24.473 50.7311 20.8485 64.5641 22.1511L66.7587 18.8946C71.5302 11.7162 77.5336 5.86868 85.6323 2.32903C98.3043 -3.12203 111.259 1.21045 118.112 13.0754C121.185 18.5264 122.728 24.6288 122.685 30.7736C122.657 31.9205 122.643 33.0532 122.728 34.3558C124.993 35.5451 127.245 36.7344 129.51 37.9237C134.664 40.8262 138.897 45.1588 141.7 50.4399C144.674 55.5936 145.792 61.6252 145.07 67.5294C144.207 73.4193 141.686 78.9128 137.495 83.1604C134.126 86.6717 130.133 89.5318 125.56 91.4291C124.654 91.7264 123.861 92.321 123.096 92.6467L122.77 92.8874H122.785ZM63.0065 32.9399C52.076 31.34 42.1792 35.4743 36.1759 44.196C29.6204 53.8239 29.6772 68.1381 42.0094 75.8121C42.9297 76.3784 43.7084 76.9165 44.4447 77.7377C45.7189 78.7855 46.3561 80.3004 46.5543 81.9144C46.7525 83.5285 46.087 85.1426 45.0392 86.4169C44.5012 87.1956 43.6802 87.9319 43.1138 88.8522C39.4326 93.4679 37.4787 99.0464 37.4787 104.908C37.4362 113.063 41.967 119.293 49.825 121.304C54.2708 122.238 58.7733 121.757 62.9218 119.789C67.1977 117.976 70.9072 115.088 73.8664 111.506C77.4485 107.598 81.328 107.442 85.2358 111.025C87.3738 113.049 89.6957 114.819 92.1876 116.334C102.495 122.139 111.344 117.41 112.35 105.687C112.562 101.283 112.052 96.9226 110.806 92.7316C109.475 88.1018 111.033 85.3267 115.422 83.6702C116.597 83.4153 117.673 82.9905 118.735 82.5799C121.808 81.1641 124.611 79.5783 127.315 77.681C129.269 76.1094 130.827 74.1839 132.016 71.9326C133.205 69.6673 133.828 67.3311 133.913 64.7684C133.984 62.3473 133.63 59.8554 132.837 57.4626C132.016 55.1972 130.628 52.9884 128.873 51.3036C126.253 48.6276 123.28 46.4755 119.754 45.1021C118.268 44.4508 116.937 43.8279 115.592 43.2049C114.233 42.7235 112.93 41.8174 112.123 40.5572C111.316 39.2971 111.089 37.8246 111.316 36.2955C111.5 35.0354 111.543 33.7469 111.444 32.4585C111.373 29.0179 110.863 25.6482 110.07 22.236C106.913 11.4755 97.5962 7.68097 87.5294 12.9338C86.7506 13.3869 85.9579 13.8541 85.1792 14.3071C80.4077 17.6203 76.4715 22.0519 73.7247 27.0924C71.4451 31.6232 67.8206 33.5345 62.8793 32.8124L62.9926 32.9682L63.0065 32.9399Z" fill="#102185"/>
</svg>

<svg xmlns="http://www.w3.org/2000/svg" width="174" height="373" fill="none" viewBox="0 0 174 373"><path fill="#102185" d="M62.326 169.91c-2.577.057-4.743.17-6.895.142-1.005 0-1.996 0-2.945-.425-1.118-.17-2.166-.892-2.874-1.854-.722-.963-.977-2.153-.949-3.285a6.65 6.65 0 0 1 1.317-3.101c.708-.892 1.784-1.458 2.974-1.713 2.619-.326 5.365-.51 8.084-.538 17.826-.552 35.623-.949 53.449-1.501 2.86 0 5.607-.184 8.467-.198 3.724-.029 6.117 2.18 6.23 5.352.113 3.171-2.478 5.224-6.23 5.394-2.166.113-4.304.085-6.895.142-.114 3.709-.326 7.107-.255 10.548-.227 22.144-.581 44.132-.807 66.276.113 2.166.085 4.304-.241 6.541-.736 3.045.481 5.508 1.841 8 16.523 30.88 33.188 61.788 49.711 92.682 2.024 3.724 4.063 7.462 5.946 11.171.68 1.246 1.048 2.592 1.274 4.05-.099.694-.197 1.402-.452 2.081-.255.68-.751 1.175-1.246 1.685-.496.51-1.119.835-1.87 1.019-.594.199-1.316.241-2.024.128-8.24-1.345-16.637-.708-24.905-.92-11.554-.255-23.107-.51-34.675-.624a7585 7585 0 0 1-25.429-.283c-9.996-.17-20.006-.198-29.988-.368-14.003-.184-27.977-.509-41.966-.694-2.704-.113-5.423-.07-7.76-1.698-3.256-2.195-4.034-4.744-2.35-8.354 1.048-2.28 2.52-4.503 3.852-6.74 18.774-32.607 37.718-65.327 56.521-98.062.821-1.742 1.232-3.54 1.218-5.409.127-7.702-.057-15.319-.071-23.05.07-17.16.142-34.32.24-51.622a99 99 0 0 1-.127-5.026l-.184.254zm96.293 191.198c-.41-1.062-.608-1.671-.976-2.152-10.917-20.332-21.805-40.819-32.707-61.151-.311-.764-.934-1.43-1.6-1.812-.665-.382-1.501-.51-2.378-.354-8.028.113-16.156-.071-24.17-.099-14.441-.099-28.756-.043-43.183-.156-1.119-.17-2.308.099-3.243.665-.948.581-1.77 1.317-2.209 2.393-9.457 16.792-19.156 33.259-28.77 50.037-1.94 3.44-3.865 6.881-6.159 10.831l145.381 1.897v-.141zm-53.477-192.387-32.055 1.048c-.028 3.143-.142 5.847-.1 8.566.043 2.718.185 5.607.213 8.325 5.013.014 9.472-.198 13.876.029l2.095.311c.694.099 1.345.623 1.84 1.133.496.495.978 1.147 1.176 1.741.34.623.382 1.345.41 2.067.029 2.719-2.293 4.956-5.62 5.182-1.742.17-3.583.043-5.452.057l-8.608.17-.028 10.01c1.26.184 2.265.184 3.242.326 2.237.325 4.687.255 6.91.722 1.26.184 2.322.764 3.171 1.755a4.97 4.97 0 0 1 1.218 3.469c-.184 1.26-.651 2.478-1.487 3.356-.835.878-2.067 1.416-3.228 1.529-1.727.028-3.582.042-5.423-.071-1.402-.198-2.662-.382-4.389-.354l-.057 10.152a65 65 0 0 1 4.56.099c4.006 0 7.886-.142 11.878.014 4.262.198 6.896 3.724 5.522 7.249-.438 1.076-1.288 1.954-2.237 2.535-.948.58-2.124.835-3.27.807-2.167.113-4.432-.071-6.57-.099-3.285-.057-6.584.042-9.897.127 0 4.871.227 9.189.014 13.592-.127 1.841-.51 3.498-1.317 5.098-4.304 7.957-8.735 15.758-13.167 23.545-.58 1.062-1.034 2.138-1.812 3.596l61.236.071c-.779-1.543-1.175-2.747-1.727-3.823-3.582-6.824-7.306-13.663-10.917-20.331-1.062-1.586-1.486-3.512-1.486-5.508.467-3.228.538-6.64.594-9.925.241-21.28.496-42.575.751-63.997.17-4.12.184-8.127.254-12.559h-.141zM122.785 92.887c.509 4.361.707 8.835.637 13.253-.652 10.35-6.089 19.142-15.433 22.356a21.4 21.4 0 0 1-9.034 1.119c-3.129-.17-6.144-1.034-8.778-2.563-3.483-1.656-6.598-3.823-9.5-5.536-2.69 1.756-5.395 3.653-8.085 5.409-8.212 5.238-17.061 7.093-26.548 4.431-5.479-1.656-10.434-4.955-13.762-9.599-3.469-4.658-5.38-10.223-5.394-15.957-.042-6.584 1.628-13.068 4.885-18.746.58-1.062 1.33-2.237 1.954-3.582a13 13 0 0 0-1.218-1.473c-14.4-12.12-15.433-34.447-.878-48.917 8.693-8.609 19.1-12.233 32.933-10.93l2.195-3.257C71.53 11.716 77.534 5.869 85.632 2.329c12.672-5.451 25.627-1.119 32.48 10.746a35.5 35.5 0 0 1 4.573 17.699c-.028 1.146-.042 2.28.043 3.582 2.265 1.19 4.517 2.378 6.782 3.568A31.06 31.06 0 0 1 141.7 50.44c2.974 5.154 4.092 11.185 3.37 17.09-.863 5.89-3.384 11.383-7.575 15.63-3.369 3.512-7.362 6.372-11.935 8.27-.906.296-1.699.891-2.464 1.217l-.326.24zM63.007 32.94c-10.931-1.6-20.828 2.534-26.831 11.256-6.556 9.628-6.499 23.942 5.833 31.616.92.566 1.7 1.105 2.436 1.926 1.274 1.047 1.911 2.562 2.11 4.176.197 1.614-.468 3.229-1.516 4.503-.538.779-1.359 1.515-1.925 2.435-3.681 4.616-5.635 10.194-5.635 16.056-.043 8.155 4.488 14.385 12.346 16.396 4.446.934 8.948.453 13.097-1.515 4.276-1.813 7.985-4.701 10.944-8.283 3.582-3.908 7.462-4.064 11.37-.481a41.3 41.3 0 0 0 6.952 5.309c10.307 5.805 19.156 1.076 20.162-10.647.212-4.404-.298-8.764-1.544-12.955-1.331-4.63.227-7.405 4.616-9.062 1.175-.255 2.251-.68 3.313-1.09 3.073-1.416 5.876-3.002 8.58-4.899 1.954-1.572 3.512-3.497 4.701-5.748a16.2 16.2 0 0 0 1.897-7.165 21.3 21.3 0 0 0-1.076-7.305c-.821-2.266-2.209-4.475-3.964-6.16-2.62-2.675-5.593-4.828-9.119-6.2-1.486-.652-2.817-1.275-4.162-1.898-1.359-.481-2.662-1.388-3.469-2.648s-1.034-2.732-.807-4.262c.184-1.26.227-2.548.128-3.837-.071-3.44-.581-6.81-1.374-10.222-3.157-10.76-12.474-14.555-22.54-9.302-.78.453-1.572.92-2.35 1.373a37.4 37.4 0 0 0-11.455 12.785c-2.28 4.531-5.904 6.443-10.846 5.72l.114.156z"/></svg>
